X:116
T:Orph?e
O:France
A:Provence
C:?
R:Marche
S:Carnet du tambourinaire Ginas (1924)
Z:Transcrit et/ou corrig? par Michel BELLON - 2005-03-06
Z:Pour toute observation mailto:galouvielle@free.fr
M:6/8
L:1/8
K:Bb
V:Galoubet
f2ff2g | e2ee2f | d2df2e | d3c2F | f2ff2g | e2ee2f | d2z cBc | B3B2z !fine! ||
z2z FFF | B3dce | d2f |fec | d2dc2c | B3FFF | B2B dce | d2f fec | d2d c2c | B3- BAB | c2c ccc | d2fd2d | c2cB2c |
A3AAB | c3ccc | d2fd2d | c2c =e2e | f3FFF | B3 dce | d2f fec | d2d c2c | B3FFF | B3dce | d2ffec | d2dc2c | B3 z2z!D.C.! |]
<end>
<start>
